src/symbolic/mimetypes/x-office-document-symbolic.svg

<svg xmlns="http://www.w3.org/2000/svg" width="16" height="16"><path d="M3 1C1 1 1 3 1 3v10c0 2 2 2 2 2h10s2 0 2-2V3c0-2-2-2-2-2zm1 3h8v1H4zm0 3h8v1H4zm0 3h6v1H4z" fill="#444"/></svg>

<svg xmlns="http://www.w3.org/2000/svg" width="16" height="16" version="1.1">
 <path style="fill:#444444" d="M 3,1 C 1,1 1,3 1,3 V 13 C 1,15 3,15 3,15 H 13 C 13,15 15,15 15,13 V 3 C 15,1 13,1 13,1 Z M 4,4 H 12 V 5 H 4 Z M 4,7 H 12 V 8 H 4 Z M 4,10 H 10 V 11 H 4 Z"/>
</svg>
